assets/svg/twitter-mono.svg

<svg fill="none" height="24" viewBox="0 0 25 24" width="25" xmlns="http://www.w3.org/2000/svg" xmlns:xlink="http://www.w3.org/1999/xlink"><clipPath id="a"><path d="m2.5 2h20v20h-20z"/></clipPath><g clip-path="url(#a)"><path d="m22.5 5.79752c-.7358.32667-1.5267.54667-2.3567.64583.8475-.5075 1.4984-1.31166 1.8042-2.27-.7925.47-1.6708.81167-2.6058.99584-.7475-.7975-1.815-1.29584-2.995-1.29584-2.6492 0-4.5959 2.47167-3.9975 5.0375-3.4092-.17083-6.43253-1.80416-8.4567-4.28666-1.075 1.84416-.5575 4.25666 1.26917 5.47831-.67167-.0216-1.305-.20581-1.8575-.51331-.045 1.90081 1.3175 3.67921 3.29083 4.07501-.5775.1567-1.21.1933-1.85333.07.52166 1.63 2.03666 2.8158 3.83333 2.8492-1.725 1.3525-3.89833 1.9566-6.075 1.7 1.81583 1.1641 3.97333 1.8433 6.29 1.8433 7.6183 0 11.9225-6.4342 11.6625-12.20501.8017-.57917 1.4975-1.30167 2.0475-2.12417z" fill="#00005a"/></g></svg>

<svg width="25" height="24" viewBox="0 0 25 24" fill="none" xmlns="http://www.w3.org/2000/svg">
<g clip-path="url(#clip0_9_661)">
<path d="M22.5 5.79752C21.7642 6.12419 20.9733 6.34419 20.1433 6.44335C20.9908 5.93585 21.6417 5.13169 21.9475 4.17335C21.155 4.64335 20.2767 4.98502 19.3417 5.16919C18.5942 4.37169 17.5267 3.87335 16.3467 3.87335C13.6975 3.87335 11.7508 6.34502 12.3492 8.91085C8.94 8.74002 5.91667 7.10669 3.8925 4.62419C2.8175 6.46835 3.335 8.88085 5.16167 10.1025C4.49 10.0809 3.85667 9.89669 3.30417 9.58919C3.25917 11.49 4.62167 13.2684 6.595 13.6642C6.0175 13.8209 5.385 13.8575 4.74167 13.7342C5.26333 15.3642 6.77833 16.55 8.575 16.5834C6.85 17.9359 4.67667 18.54 2.5 18.2834C4.31583 19.4475 6.47333 20.1267 8.79 20.1267C16.4083 20.1267 20.7125 13.6925 20.4525 7.92169C21.2542 7.34252 21.95 6.62002 22.5 5.79752Z" fill="#00005A"/>
</g>
<defs>
<clipPath id="clip0_9_661">
<rect width="20" height="20" fill="white" transform="translate(2.5 2)"/>
</clipPath>
</defs>
</svg>
